P2
33 57
255
0 0 0 0 0 0 0 0 0 0 0 0 0 0 0 0 0 0 0 0 0 0 0 0 0 0 0 0 0 0 0 0 0
0 0 0 0 0 0 0 0 0 0 0 0 0 0 0 0 0 0 0 0 0 0 0 0 0 0 0 0 0 0 0 0 0
0 0 0 0 0 0 0 0 0 0 0 0 0 0 0 0 0 0 0 0 0 0 0 0 0 0 0 0 0 0 0 0 0
0 0 0 0 0 0 0 0 0 0 0 0 0 0 0 0 0 0 0 0 0 0 254 254 0 0 0 0 0 0 0 0 0
0 0 0 0 0 0 0 0 0 0 0 0 0 0 0 0 0 0 0 0 254 254 254 254 0 0 0 0 0 0 0 0 0
0 0 0 0 0 0 0 0 0 0 0 0 0 0 0 0 0 254 254 254 254 254 254 254 254 254 254 254 0 0 0 0 0
0 0 0 0 0 0 0 0 0 0 0 0 0 0 0 0 0 254 254 254 254 254 254 254 254 254 254 254 0 0 0 0 0
0 0 0 0 0 0 0 0 0 0 0 0 0 0 0 0 254 254 254 254 254 254 254 254 254 254 254 254 0 0 0 0 0
0 0 0 0 0 0 0 0 0 0 0 0 0 0 0 254 254 254 254 254 254 254 254 254 254 254 254 254 254 254 0 0 0
0 0 0 0 0 0 0 0 0 0 0 0 0 254 254 254 254 254 0 0 254 254 254 254 254 254 254 254 254 254 0 0 0
0 0 0 0 0 0 0 0 0 0 0 0 0 254 254 254 254 0 0 0 254 254 254 254 254 254 254 254 254 0 0 0 0
0 0 0 0 0 0 0 0 0 0 0 0 0 254 254 254 254 0 0 0 254 254 254 254 254 254 254 254 0 0 0 0 0
0 0 0 0 0 0 0 0 0 0 0 0 0 254 254 254 254 0 0 254 254 254 254 254 254 254 254 254 0 0 0 0 0
0 0 0 0 0 0 0 0 0 0 0 0 0 254 254 254 254 0 0 0 254 254 254 254 254 254 254 254 0 0 0 0 0
0 0 0 0 0 0 0 0 0 0 0 0 0 254 254 254 254 0 0 0 254 254 254 254 254 254 254 254 254 0 0 0 0
0 0 0 0 0 0 0 0 0 0 0 0 0 0 254 254 254 254 254 254 254 254 254 254 254 254 254 254 254 254 0 0 0
0 0 0 0 0 0 0 0 0 0 0 0 0 0 0 254 254 254 254 254 254 254 254 254 254 254 254 254 254 254 0 0 0
0 0 0 0 0 0 0 0 0 0 0 0 0 0 0 0 254 254 254 254 254 254 254 254 254 254 254 254 254 254 0 0 0
0 0 0 0 0 0 0 0 0 0 0 0 0 0 0 0 0 254 254 254 254 254 254 254 254 254 254 254 254 254 0 0 0
0 0 0 0 0 0 0 0 0 0 0 0 0 0 0 0 0 0 254 254 254 254 254 254 254 254 254 254 254 254 0 0 0
0 0 0 0 0 0 0 0 0 0 0 0 0 0 0 0 0 254 254 254 254 254 254 254 254 254 254 254 254 254 0 0 0
0 0 0 0 0 0 0 0 0 0 0 0 0 0 0 0 0 0 254 254 254 254 254 254 254 254 254 254 254 254 0 0 0
0 0 0 0 0 0 0 0 0 0 0 0 0 0 0 0 0 0 254 254 254 254 254 254 254 254 254 254 254 254 0 0 0
0 0 0 0 0 0 0 0 0 0 0 0 0 0 0 0 0 0 254 254 254 254 254 254 254 254 254 254 254 254 0 0 0
0 0 0 0 0 0 0 0 0 0 0 0 0 0 0 0 0 0 254 254 254 254 254 254 254 254 254 254 254 254 0 0 0
0 0 0 0 0 0 0 0 0 0 0 0 0 0 0 0 0 0 254 254 254 254 254 254 254 254 254 254 254 254 0 0 0
0 0 254 254 254 254 254 254 254 254 0 0 0 0 0 0 0 254 254 254 254 254 254 254 254 254 254 254 254 254 0 0 0
0 0 254 254 254 254 254 254 254 254 254 254 0 0 0 254 254 254 254 254 254 0 0 0 254 254 254 254 254 254 0 0 0
0 0 254 254 254 254 254 254 254 254 254 254 254 254 254 254 254 254 254 254 254 0 0 0 254 254 254 254 254 254 0 0 0
0 0 0 0 0 254 254 254 254 254 254 254 254 254 254 254 254 254 254 254 254 0 0 0 254 254 254 254 254 254 0 0 0
0 0 0 0 0 254 254 254 254 254 254 254 254 254 254 254 254 254 254 254 254 0 0 0 254 254 254 254 254 254 0 0 0
0 0 0 0 0 0 254 254 254 254 254 254 254 254 254 254 254 254 254 254 254 0 0 0 0 254 254 254 254 254 0 0 0
0 0 0 0 0 0 254 254 254 254 254 254 254 254 254 254 254 254 254 254 254 0 0 0 0 0 0 0 0 0 0 0 0
0 0 0 0 0 0 254 254 254 254 254 254 254 254 254 254 254 254 254 254 254 254 0 0 0 0 0 0 0 0 0 0 0
0 0 0 0 0 0 254 254 254 254 254 254 254 254 254 254 254 254 254 254 254 254 0 0 0 0 0 0 0 0 0 0 0
0 0 0 0 0 0 254 254 254 254 254 254 254 254 254 254 254 254 254 254 254 254 254 0 0 254 254 254 254 0 0 0 0
0 0 0 0 0 0 254 254 254 254 254 254 254 254 254 254 254 254 254 254 254 254 254 254 254 254 254 254 254 0 0 0 0
0 0 0 0 0 0 254 254 254 254 254 254 0 0 0 0 0 254 254 254 254 254 254 254 254 254 254 254 254 0 0 0 0
0 0 0 0 0 0 254 254 254 254 254 254 0 0 0 0 0 254 254 254 254 254 254 254 254 254 254 254 254 0 0 0 0
0 0 0 0 0 0 254 254 254 254 254 254 254 0 0 0 0 254 254 254 254 254 254 254 254 254 254 254 254 0 0 0 0
0 0 0 0 0 0 254 254 254 254 254 254 0 0 0 0 0 254 254 254 254 254 254 254 254 254 254 254 254 0 0 0 0
0 0 0 0 0 0 254 254 254 254 254 254 0 0 0 0 0 254 254 254 254 254 254 254 254 254 254 254 254 0 0 0 0
0 0 0 0 0 0 254 254 254 254 254 254 254 0 0 0 254 254 254 254 254 254 254 254 254 254 254 254 254 0 0 0 0
0 0 0 0 0 0 254 254 254 254 254 254 254 254 254 254 254 254 254 254 254 254 254 254 254 254 254 254 254 0 0 0 0
0 0 0 0 254 254 254 254 254 254 254 254 254 254 254 254 254 254 254 254 254 254 254 254 254 254 254 254 254 0 0 0 0
0 0 0 0 254 254 254 254 254 254 254 254 254 254 254 254 254 254 254 254 254 254 254 254 254 254 254 254 254 0 0 0 0
0 0 0 0 254 254 254 254 254 254 254 254 254 254 254 254 254 254 254 254 254 254 254 254 254 254 254 254 0 0 0 0 0
0 0 0 0 254 254 254 254 254 254 254 254 254 254 254 254 254 254 254 254 254 254 254 254 254 254 254 254 0 0 0 0 0
0 0 0 0 254 254 254 254 254 254 254 254 254 254 254 254 254 254 254 254 254 254 254 254 254 254 254 254 0 0 0 0 0
0 0 0 0 0 254 254 254 254 254 254 254 254 254 254 254 254 254 254 254 254 254 254 254 254 254 254 254 0 0 0 0 0
0 0 0 0 0 0 254 254 254 254 254 254 254 254 254 254 254 254 254 254 254 254 254 254 254 254 254 254 0 0 0 0 0
0 0 0 0 0 0 0 254 254 254 254 254 254 254 254 254 254 254 254 254 254 254 0 0 254 254 254 0 0 0 0 0 0
0 0 0 0 0 0 0 0 0 0 0 0 0 254 254 254 254 254 254 254 254 254 0 0 254 254 254 0 0 0 0 0 0
0 0 0 0 0 0 0 0 0 0 0 0 0 254 254 254 254 254 254 254 254 0 0 0 0 0 0 0 0 0 0 0 0
0 0 0 0 0 0 0 0 0 0 0 0 0 254 254 254 254 254 254 254 254 0 0 0 0 0 0 0 0 0 0 0 0
0 0 0 0 0 0 0 0 0 0 0 0 0 0 0 254 254 254 0 0 0 0 0 0 0 0 0 0 0 0 0 0 0
0 0 0 0 0 0 0 0 0 0 0 0 0 0 0 254 254 254 0 0 0 0 0 0 0 0 0 0 0 0 0 0 0
