P2
27 26
255
0 0 0 0 0 0 254 254 254 254 0 0 0 0 254 254 0 0 0 0 0 0 0 0 0 0 0
0 0 0 0 0 0 0 254 254 254 254 254 254 254 254 254 254 254 0 0 0 0 254 254 0 0 0
0 0 0 0 0 0 254 254 254 254 254 254 254 254 254 254 254 254 254 254 254 254 254 254 0 0 0
0 0 0 0 0 0 0 254 254 254 254 254 254 254 254 254 254 254 254 254 254 254 254 0 0 0 0
0 0 0 0 254 0 0 254 254 254 254 254 254 254 254 254 254 254 254 254 254 254 254 0 0 0 0
0 0 0 0 254 254 254 254 254 254 254 254 254 254 254 254 254 254 254 254 254 254 254 0 0 0 0
0 0 0 0 0 254 254 254 254 254 254 254 254 254 254 254 254 254 254 254 254 254 0 0 0 0 0
0 0 0 0 0 254 254 254 254 254 254 254 254 254 254 254 254 254 254 254 254 254 0 0 0 0 0
0 0 0 0 254 254 254 254 254 254 254 254 254 254 254 254 254 254 254 254 254 254 0 0 0 0 0
0 0 0 0 254 254 254 254 254 254 254 254 254 254 254 254 254 254 254 254 254 254 0 0 0 0 0
0 0 0 0 254 254 254 254 254 254 254 254 254 254 254 254 254 254 254 254 254 254 254 254 254 0 0
0 0 0 0 254 254 254 254 254 254 254 254 254 254 254 254 254 254 254 254 254 254 254 254 254 0 0
0 0 0 0 254 254 254 254 254 0 0 0 254 254 0 0 0 0 254 254 254 254 254 254 254 0 0
0 0 0 0 254 254 254 254 254 0 0 0 0 0 0 0 0 0 254 254 254 254 254 254 0 0 0
0 0 0 0 0 254 254 0 0 0 0 0 0 0 0 0 0 0 0 0 0 254 254 0 0 0 0
0 0 0 0 0 254 254 0 0 0 0 0 0 0 0 0 0 0 0 0 0 254 254 0 0 0 0
0 0 0 0 0 254 254 254 0 0 0 0 0 0 0 0 0 0 0 0 0 254 254 0 0 0 0
0 0 0 0 254 254 254 254 254 254 254 0 0 0 0 0 0 0 254 254 254 254 254 0 0 0 0
0 0 0 0 254 254 254 254 254 254 254 0 0 0 0 0 0 0 0 254 254 254 254 254 0 0 0
0 0 0 0 254 254 254 254 0 0 0 0 0 0 0 0 0 0 0 254 254 254 254 0 0 0 0
0 0 0 0 254 254 254 254 0 0 0 0 0 0 0 0 0 0 0 254 254 254 254 0 0 0 0
0 0 0 0 0 0 254 254 0 0 0 0 0 0 0 0 0 0 0 0 254 254 254 0 0 0 0
0 0 0 0 0 0 254 254 0 0 0 0 0 0 0 0 0 0 0 0 0 0 0 0 0 0 0
0 0 0 0 0 0 0 0 0 0 0 0 0 0 0 0 0 0 0 0 0 0 0 0 0 0 0
0 0 0 0 0 0 0 0 0 0 0 0 0 0 0 0 0 0 0 0 0 0 0 0 0 0 0
0 0 0 0 0 0 0 0 0 0 0 0 0 0 0 0 0 0 0 0 0 0 0 0 0 0 0
