P2
36 26
255
0 0 0 0 0 0 0 0 0 0 0 0 0 0 0 0 0 0 0 0 254 254 0 0 0 0 0 0 0 0 0 0 0 0 0 0
0 0 0 0 0 0 0 0 0 0 0 0 0 0 0 254 254 254 254 254 254 254 254 254 254 254 254 0 0 0 0 0 0 0 0 0
0 0 0 0 0 0 0 254 254 254 0 0 0 0 0 254 254 254 254 254 254 254 254 254 254 254 254 0 0 0 0 0 0 0 0 0
0 0 0 0 0 0 0 254 254 254 254 254 254 254 254 254 254 254 254 254 254 254 254 254 254 254 0 0 0 0 0 0 0 0 0 0
0 0 0 0 0 0 0 254 254 254 254 254 254 254 254 254 254 254 254 254 254 254 254 254 254 254 254 0 0 0 0 0 0 0 0 0
0 0 0 0 0 0 0 254 254 254 254 254 254 254 254 254 254 254 254 254 254 254 254 254 254 254 254 254 254 254 254 0 0 0 0 0
0 0 0 0 0 0 0 254 254 254 254 254 254 254 254 254 254 254 254 254 254 254 254 254 254 254 254 254 254 254 254 254 0 0 0 0
0 0 0 254 254 254 254 254 254 254 254 254 254 254 254 254 254 254 254 254 254 254 254 254 254 254 254 254 254 254 254 254 0 0 0 0
0 0 254 254 254 254 254 254 254 254 254 254 254 254 254 254 254 254 254 254 254 254 254 254 254 254 254 254 254 254 254 0 0 0 0 0
0 0 254 254 254 254 254 254 254 254 254 254 254 254 254 254 254 254 254 254 254 254 254 254 254 254 254 254 254 254 254 0 0 0 0 0
0 0 254 254 254 254 254 254 254 254 254 254 254 254 254 254 254 254 254 254 254 254 254 254 254 254 254 254 254 254 254 0 0 0 0 0
0 0 254 254 254 254 254 254 254 0 0 0 0 0 0 0 0 0 0 0 254 254 254 254 254 254 254 254 254 254 254 0 0 0 0 0
0 0 254 254 254 254 254 254 254 0 0 0 0 0 0 0 0 0 0 0 254 254 254 254 254 254 254 254 254 254 254 0 0 0 0 0
0 0 254 254 254 254 254 254 254 0 0 0 0 0 0 0 0 0 0 0 0 254 254 254 254 254 254 254 254 254 254 0 0 0 0 0
0 0 0 0 254 254 0 0 0 0 0 0 0 0 0 0 0 0 0 0 0 254 254 254 254 254 254 254 254 254 0 0 0 0 0 0
0 0 0 0 254 254 0 0 0 0 0 0 0 0 0 0 0 0 0 0 0 254 254 254 254 254 254 254 254 254 0 0 0 0 0 0
0 0 0 0 254 254 0 0 0 0 0 0 0 0 0 0 0 0 0 0 0 254 254 254 254 254 254 254 254 254 0 0 0 0 0 0
0 0 254 254 254 254 254 254 254 254 254 254 0 0 0 0 0 0 0 0 0 254 254 254 254 254 254 254 254 254 0 0 0 0 0 0
0 0 254 254 254 254 254 254 254 254 254 254 254 254 0 0 0 0 0 0 0 254 254 254 254 254 254 254 254 254 0 0 0 0 0 0
0 0 254 254 254 254 254 254 254 254 254 254 254 254 0 0 0 0 0 0 0 0 254 254 254 254 254 254 254 254 0 0 0 0 0 0
0 0 0 0 0 0 0 0 0 254 254 254 254 254 0 0 0 0 0 0 0 0 254 0 0 254 254 254 254 254 0 0 0 0 0 0
0 0 0 0 0 0 0 0 0 0 0 0 0 0 0 0 0 0 0 0 0 0 0 0 0 254 254 0 0 0 0 0 0 0 0 0
0 0 0 0 0 0 0 0 0 0 0 0 0 0 0 0 0 0 0 0 0 0 0 0 0 0 254 0 0 0 0 0 0 0 0 0
0 0 0 0 0 0 0 0 0 0 0 0 0 0 0 0 0 0 0 0 0 0 0 0 0 0 0 0 0 0 0 0 0 0 0 0
0 0 0 0 0 0 0 0 0 0 0 0 0 0 0 0 0 0 0 0 0 0 0 0 0 0 0 0 0 0 0 0 0 0 0 0
0 0 0 0 0 0 0 0 0 0 0 0 0 0 0 0 0 0 0 0 0 0 0 0 0 0 0 0 0 0 0 0 0 0 0 0
