P2
25 33
255
0 0 0 0 0 0 0 0 0 0 0 0 0 0 0 0 0 0 0 0 0 0 0 0 0
0 0 0 0 0 0 0 0 0 0 0 0 0 0 0 0 0 0 0 0 0 0 0 0 0
0 0 0 0 0 0 0 0 0 0 0 0 0 0 0 0 0 254 254 0 0 0 0 0 0
0 0 0 0 0 0 0 0 0 0 0 0 0 0 0 0 0 254 0 0 0 0 0 0 0
0 0 0 0 0 0 0 0 0 0 0 0 0 0 0 0 0 254 0 0 0 0 0 0 0
0 0 0 0 0 0 0 0 0 0 0 0 0 0 0 0 0 254 254 0 0 0 0 0 0
0 0 0 0 0 0 0 0 0 0 0 0 0 0 0 0 0 254 254 254 0 0 254 254 0
0 0 0 0 0 0 0 0 0 254 0 0 0 0 0 0 0 254 254 254 254 254 254 254 0
0 0 0 0 0 0 0 0 0 254 254 254 254 254 254 254 254 254 254 254 254 254 254 254 0
0 0 0 0 0 0 0 0 0 254 254 254 254 254 254 254 254 254 254 254 254 254 0 0 0
0 0 0 0 0 0 0 0 0 254 254 254 254 254 254 254 254 254 254 254 254 254 0 0 0
0 0 0 0 0 0 0 0 0 254 254 254 254 254 254 254 254 254 254 254 254 254 0 0 0
0 0 0 0 0 0 0 0 0 0 254 254 254 254 254 254 254 254 254 254 254 254 0 0 0
0 0 0 0 0 0 0 0 0 0 254 254 254 254 254 254 254 254 254 254 254 254 254 0 0
0 0 0 0 0 254 254 254 254 254 254 254 254 254 254 254 254 254 254 254 254 254 254 0 0
0 0 0 0 0 0 254 254 254 254 254 254 254 254 254 254 254 254 254 254 254 254 254 0 0
0 0 0 0 0 0 254 254 254 254 254 254 254 254 254 254 254 254 254 254 254 254 254 254 254
0 0 0 0 0 0 254 254 254 254 254 254 254 254 254 254 254 254 254 254 254 254 254 254 254
0 0 0 0 0 0 254 254 254 254 254 254 254 254 254 254 254 254 254 254 254 254 254 0 0
0 0 0 0 0 0 0 0 254 254 254 254 254 254 0 0 0 0 254 254 254 254 254 0 0
0 0 0 0 0 0 0 0 0 0 254 254 254 254 0 0 0 0 254 254 254 254 254 0 0
0 0 0 0 0 0 0 0 0 0 254 254 254 254 0 0 0 0 254 254 254 254 254 254 0
0 0 0 0 0 0 0 0 0 0 0 254 254 254 254 0 0 0 254 254 254 254 254 254 0
0 0 0 0 0 0 0 0 0 0 0 254 254 254 254 254 254 254 254 254 254 254 254 254 0
0 0 0 0 0 0 0 0 0 0 0 254 254 254 254 254 254 254 254 254 254 254 254 254 0
0 0 0 0 0 0 0 0 0 0 0 254 254 254 254 254 254 254 254 254 254 254 254 254 0
0 0 0 0 0 0 0 0 0 0 0 254 254 254 254 254 254 254 254 254 254 254 254 254 0
0 0 0 0 0 0 0 0 0 0 0 254 254 254 254 254 254 254 254 254 254 254 254 254 0
0 0 0 0 0 0 0 0 0 0 254 254 254 254 254 254 254 254 254 254 254 254 254 0 0
0 0 0 0 0 0 0 0 0 0 254 254 254 254 254 254 254 254 254 254 254 254 254 0 0
0 0 0 0 0 0 0 0 0 0 0 254 254 254 254 254 254 254 254 254 254 254 254 254 0
0 0 0 0 0 0 0 0 0 0 0 0 254 0 0 0 0 0 0 0 0 0 254 254 0
0 0 0 0 0 0 0 0 0 0 0 0 0 0 0 0 0 0 0 0 0 0 0 0 0
