P2
19 35
255
0 0 0 0 0 0 0 0 0 0 0 0 0 0 0 0 0 0 0
0 0 0 0 0 0 0 0 0 0 0 0 0 0 0 0 0 0 0
0 0 0 0 0 0 0 0 0 0 0 0 0 0 0 0 0 0 0
0 0 0 0 0 0 0 0 0 0 0 0 0 0 0 0 0 0 0
0 0 0 0 0 0 0 0 0 0 0 0 0 0 0 0 0 0 0
0 0 0 0 0 0 0 0 0 0 0 0 0 0 0 0 0 0 0
0 0 0 0 0 0 0 0 0 0 0 0 0 0 0 0 0 0 0
0 0 0 0 0 0 0 0 0 0 0 0 0 0 0 0 0 0 0
0 0 0 0 0 0 0 0 0 0 0 0 0 0 254 254 0 0 0
0 0 0 0 0 0 0 0 0 0 0 0 0 0 254 254 254 0 0
0 0 0 0 0 0 0 0 0 0 0 0 0 0 254 254 254 0 0
0 0 0 0 0 0 0 0 0 0 0 0 0 0 254 254 254 0 0
0 0 0 0 0 0 254 254 254 254 254 254 254 254 254 254 254 0 0
0 0 0 0 0 0 254 254 254 254 254 254 254 254 254 254 254 0 0
0 0 0 0 0 254 254 254 254 254 254 254 254 254 254 254 254 0 0
0 0 0 0 0 254 254 254 254 254 254 254 254 254 254 254 254 0 0
0 0 0 254 254 254 254 254 254 254 254 254 254 254 254 254 254 0 0
0 0 0 254 254 254 254 254 254 254 254 254 254 254 254 254 254 0 0
0 0 0 254 254 254 254 254 254 254 254 254 254 254 0 0 0 0 0
0 0 0 254 254 254 254 254 254 254 254 254 254 254 0 0 0 0 0
0 0 0 254 254 254 254 254 254 254 254 254 254 254 0 0 0 0 0
0 0 0 254 254 254 254 254 254 254 254 254 254 0 0 0 0 0 0
0 0 254 254 254 254 254 254 254 254 254 254 254 0 0 0 0 0 0
0 0 254 254 254 254 254 254 254 254 254 254 254 0 0 0 0 0 0
0 0 254 254 254 254 254 254 254 254 254 254 254 0 0 0 0 0 0
0 0 254 254 254 254 254 254 254 254 254 254 254 254 254 0 0 0 0
0 0 0 0 0 254 254 254 254 254 254 254 254 254 0 0 0 0 0
0 0 0 0 0 254 254 254 254 254 254 254 254 254 254 0 0 0 0
0 0 0 0 0 254 254 254 254 254 254 254 254 254 254 0 0 0 0
0 0 0 0 0 254 254 254 254 254 254 254 254 254 254 0 0 0 0
0 0 0 0 0 254 254 254 254 254 254 254 254 254 254 254 0 0 0
0 0 0 0 0 0 254 254 254 254 254 254 254 0 0 0 0 0 0
0 0 0 0 0 0 254 254 254 254 254 254 254 0 0 0 0 0 0
0 0 0 0 0 0 0 0 254 254 254 0 0 0 0 0 0 0 0
0 0 0 0 0 0 0 0 254 254 254 0 0 0 0 0 0 0 0
